(Exported by FreeCAD)
(Post Processor: UtilsXTool)
(begin preamble)

M17 S1 (enable steppers)
M106 S0 (led off)
M205 X426 Y403
M101
G92 X17 Y1 (laser offset from led)
G90

G1 F1860
G0 F3000
G1 S020
G21
(begin operation: Fixture)
(machine units: mm/min)
G54 
(finish operation: Fixture)
(begin operation: cardboard cutting)
(machine units: mm/min)
(cardboard cutting) 
M6 T1 
M3 S1000 
(finish operation: cardboard cutting)
(begin operation: Profile)
(machine units: mm/min)
(Profile) 
(Compensated Tool Path. Diameter: 0.2) 
G0 Z8.175 
G0 X17.848 Y8.569 
G0 Z6.175 
G1 X17.848 Y8.569 Z0.000 F600.000 
G1 X17.167 Y7.980
G1 X16.408 Y7.494
G1 X15.588 Y7.123
G1 X14.722 Y6.874
G1 X13.830 Y6.752
G1 X12.929 Y6.759
G1 X12.038 Y6.895
G1 X11.314 Y7.107
G1 X10.621 Y7.405
G1 X9.968 Y7.784
G1 X9.366 Y8.240
G1 X8.823 Y8.764
G1 X8.348 Y9.350
G1 X7.946 Y9.989
G1 X7.625 Y10.672
G1 X7.388 Y11.388
G1 X7.239 Y12.128
G1 X7.180 Y12.881
G1 X7.213 Y13.635
G1 X7.336 Y14.379
G1 X7.548 Y15.104
G1 X7.846 Y15.797
G1 X8.225 Y16.450
G1 X8.680 Y17.052
G1 X9.205 Y17.594
G1 X9.791 Y18.070
G1 X10.430 Y18.472
G1 X11.112 Y18.793
G1 X11.829 Y19.030
G1 X12.569 Y19.179
G1 X13.321 Y19.237
G1 X14.075 Y19.205
G1 X14.820 Y19.082
G1 X15.571 Y18.860
G1 X16.289 Y18.546
G1 X16.961 Y18.145
G1 X17.578 Y17.662
G1 X18.130 Y17.107
G1 X18.608 Y16.486
G1 X19.005 Y15.811
G1 X19.314 Y15.092
G1 X19.531 Y14.339
G1 X19.652 Y13.565
G1 X19.676 Y12.782
G1 X19.601 Y12.003
G1 X19.429 Y11.239
G1 X19.163 Y10.502
G1 X18.807 Y9.804
G1 X18.366 Y9.157
G1 X17.848 Y8.569
G0 Z8.175 
G0 Z8.175 
G0 X17.848 Y8.569 
G0 Y-0.100 
G0 Y-0.100 Z6.175 
G1 X17.848 Y-0.100 Z0.000 F600.000 
G1 X25.400 Y-0.100 Z0.000 F600.000 
G1 X25.487 Y-0.049 Z0.000 F600.000 
G1 X33.694 Y14.563 Z0.000 F600.000 
G1 X37.802 Y-0.027 Z0.000 F600.000 
G1 X37.898 Y-0.100
G1 X50.800 Y-0.100 Z0.000 F600.000 
G1 X50.900 Y0.000
G1 X50.900 Y25.400 Z0.000 F600.000 
G1 X50.800 Y25.500
G1 X0.000 Y25.500 Z0.000 F600.000 
G1 X-0.100 Y25.400
G1 X-0.100 Y0.000 Z0.000 F600.000 
G1 X0.000 Y-0.100
G1 X17.848 Y-0.100 Z0.000 F600.000 
G0 Z8.175 
G0 Z8.175 
(finish operation: Profile)
(begin postamble)

G0 X17 Y1
M106 S1 (led on)
M18 (disable steppers)
